pix_core/t/life-ring.svg

<svg preserveAspectRatio="xMinYMid meet" viewBox="0 0 512 512" xmlns="http://www.w3.org/2000/svg"><path d="m367.2 412.5c-31.3 22.4-69.7 35.5-111.2 35.5s-79.9-13.1-111.2-35.5l58-58c15.8 8.6 34 13.5 53.3 13.5s37.4-4.9 53.3-13.5l58 58zm90.7.8c33.8-43.4 54-98 54-157.3s-20.2-113.9-54-157.3c9-12.5 7.9-30.1-3.4-41.3s-28.7-12.4-41.2-3.4c-43.4-33.8-98-54-157.3-54s-113.9 20.2-157.3 54c-12.5-9-30.1-7.9-41.3 3.4s-12.4 28.8-3.4 41.3c-33.8 43.4-54 98-54 157.3s20.2 113.9 54 157.3c-9 12.5-7.9 30.1 3.4 41.3s28.8 12.4 41.3 3.4c43.4 33.8 98 54 157.3 54s113.9-20.2 157.3-54c12.5 9 30.1 7.9 41.3-3.4s12.4-28.8 3.4-41.3zm-45.5-46.1-58-58c8.6-15.8 13.5-34 13.5-53.3s-4.9-37.4-13.5-53.3l58-58c22.5 31.5 35.6 69.9 35.6 111.4s-13.1 79.9-35.5 111.2zm-45.2-267.7-58 58c-15.8-8.6-34-13.5-53.3-13.5s-37.4 4.9-53.3 13.5l-58-58c31.5-22.4 69.9-35.5 111.4-35.5s79.9 13.1 111.2 35.5zm-209.7 209.8-58 58c-22.4-31.4-35.5-69.8-35.5-111.3s13.1-79.9 35.5-111.2l58 58c-8.6 15.8-13.5 34-13.5 53.3s4.9 37.4 13.5 53.3zm50.5-53.3a48 48 0 1 1 96 0 48 48 0 1 1 -96 0z" fill="#fff"/></svg>

<svg xmlns="http://www.w3.org/2000/svg" viewBox="0 0 512 512" preserveAspectRatio="xMinYMid meet"><!--!Font Awesome Free 6.5.2 by @fontawesome - https://fontawesome.com License - https://fontawesome.com/license/free Copyright 2024 Fonticons, Inc.--><path fill="#fff" d="M367.2 412.5C335.9 434.9 297.5 448 256 448s-79.9-13.1-111.2-35.5l58-58c15.8 8.6 34 13.5 53.3 13.5s37.4-4.9 53.3-13.5l58 58zm90.7 .8c33.8-43.4 54-98 54-157.3s-20.2-113.9-54-157.3c9-12.5 7.9-30.1-3.4-41.3S425.8 45 413.3 54C369.9 20.2 315.3 0 256 0S142.1 20.2 98.7 54c-12.5-9-30.1-7.9-41.3 3.4S45 86.2 54 98.7C20.2 142.1 0 196.7 0 256s20.2 113.9 54 157.3c-9 12.5-7.9 30.1 3.4 41.3S86.2 467 98.7 458c43.4 33.8 98 54 157.3 54s113.9-20.2 157.3-54c12.5 9 30.1 7.9 41.3-3.4s12.4-28.8 3.4-41.3zm-45.5-46.1l-58-58c8.6-15.8 13.5-34 13.5-53.3s-4.9-37.4-13.5-53.3l58-58C434.9 176.1 448 214.5 448 256s-13.1 79.9-35.5 111.2zM367.2 99.5l-58 58c-15.8-8.6-34-13.5-53.3-13.5s-37.4 4.9-53.3 13.5l-58-58C176.1 77.1 214.5 64 256 64s79.9 13.1 111.2 35.5zM157.5 309.3l-58 58C77.1 335.9 64 297.5 64 256s13.1-79.9 35.5-111.2l58 58c-8.6 15.8-13.5 34-13.5 53.3s4.9 37.4 13.5 53.3zM208 256a48 48 0 1 1 96 0 48 48 0 1 1 -96 0z"/></svg>
